assets/jule/original.svg

<svg viewBox="0 0 128 128" xmlns="http://www.w3.org/2000/svg"><path d="m39.952 70.569 19.552 15.817v25.426l-35.292-28.491zm-19.346-15.714 11.283 9.145-11.283 9.1193zm47.889 31.557 19.552-15.817 15.74 12.752-35.292 28.491zm-44.282-41.732 35.266-28.491v25.426l-19.527 15.817zm83.181 10.201v18.29l-11.283-9.145zm-38.899-13.267v-25.426l35.266 28.491-15.74 12.752zm45.931-1.4941-47.915-38.692c-.82433-.61825-1.6658-.92738-2.5245-.92738s-1.6916.30913-2.4988.92738l-47.915 38.692c-1.3224 1.0819-1.9836 2.5932-1.9836 4.5339v38.692c0 1.9407.6612 3.452 1.9836 4.5339l47.915 38.692c.8072.61825 1.6401.92738 2.4988.92738s1.7002-.30913 2.5245-.92738l47.915-38.692c1.3224-1.0819 1.9836-2.5932 1.9836-4.5339v-38.692c0-1.9407-.6612-3.452-1.9836-4.5339z" fill="#5f7389"/></svg>

<svg xmlns="http://www.w3.org/2000/svg" viewBox="0 0 128 128"><path fill="#5f7389" d="m39.952 70.569 19.552 15.817v25.426L24.212 83.321zM20.606 54.855 31.889 64l-11.283 9.12zm47.889 31.557 19.552-15.817 15.74 12.752-35.292 28.491zM24.213 44.68l35.266-28.491v25.426L39.952 57.432zm83.181 10.201v18.29l-11.283-9.145zM68.495 41.614V16.188l35.266 28.491-15.74 12.752zm45.931-1.494L66.511 1.428Q65.274.5 63.987.5c-1.288 0-1.692.309-2.5.927L13.574 40.12q-1.984 1.623-1.984 4.534v38.692q0 2.91 1.984 4.534l47.915 38.692q1.21.927 2.498.927c1.288 0 1.7-.31 2.525-.927l47.915-38.692q1.984-1.623 1.984-4.534V44.654q0-2.91-1.984-4.534"/></svg>
